X:184
T:Election Tune,June 1826. JGi.184
M:2/4
L:1/8
Q:1/4=100
S:Joshua Gibbons MS,1823,Tealby,Lincs.
R:Air
C:by J.Hawson
O:Tealby,Lincolnshire
Z:VMP/R.Greig, 2009
K:C
G|c2 c/d/e/f/|g2ee|d({^f}g)d({f}g)|e/f/e/d/ cG|
c2 c/d/e/f/|g2ee|d({^f}g)d({f}g)|c3:|
|:G/G/|GE/E/ Ec/c/|cG/G/ Ge/e/|e2 d/c/B/A/|(G2E)G/G/|
GE/E/ Ec/c/|cG/G/ Gc/d/|ee d/c/d/e/|c3||
G|c2(c/d/e/f/)|g2ee|d({^f}g)d({f}g)|e/f/e/d/ cG|c2(c/d/e/f/)|g2ee|deba|
g3d|ee/e/ ee/d/|c>dB>c AA|ff/f/ ff/e/|d>ec>d BG|
c2 (c/d/e/f/)|g2ee|d({^f}g)d({f}g)|c3G|c2Ge|c2Ge|
(g/f/)d (g/f/)d|(g/f/).d (g/f/).d|c2Ge|c2Ge|(g/f/).d (g/f/).d|
c3G|c2 (c/d/e/f/)|g2ee|d({^f}g)d({f}g)|e/f/e/d/ cG|c2 c/d/e/f/|g2ee|d({^f}g)d({f}g)|c3:|

